svgs/solid/indent.svg

<svg xmlns="http://www.w3.org/2000/svg" viewBox="0 0 448 512"><!-- Font Awesome Pro 6.0.0-alpha2 by @fontawesome - https://fontawesome.com License - https://fontawesome.com/license (Commercial License) --><path d="M9.219 350.5C11.375 351.5 13.688 352 16 352C19.688 352 23.312 350.75 26.25 348.281L122.25 268.281C125.906 265.25 128 260.75 128 256S125.906 246.75 122.25 243.719L26.25 163.719C21.469 159.719 14.844 158.937 9.219 161.5C3.594 164.156 0 169.781 0 176V336C0 342.219 3.594 347.844 9.219 350.5ZM32 96H416C433.674 96 448 81.674 448 64S433.674 32 416 32H32C14.326 32 0 46.326 0 64S14.326 96 32 96ZM416 416H32C14.326 416 0 430.326 0 448S14.326 480 32 480H416C433.674 480 448 465.674 448 448S433.674 416 416 416ZM416 288H224C206.326 288 192 302.326 192 320S206.326 352 224 352H416C433.674 352 448 337.674 448 320S433.674 288 416 288ZM416 160H224C206.326 160 192 174.326 192 192S206.326 224 224 224H416C433.674 224 448 209.674 448 192S433.674 160 416 160Z"/></svg>

<svg xmlns="http://www.w3.org/2000/svg" viewBox="0 0 448 512"><!--! Font Awesome Pro 6.0.0-alpha3 by @fontawesome - https://fontawesome.com License - https://fontawesome.com/license (Commercial License) --><path d="M9.219 350.5C11.38 351.5 13.69 352 16 352c3.688 0 7.312-1.25 10.25-3.719l96-80C125.9 265.3 128 260.7 128 255.1S125.9 246.8 122.3 243.7l-96-80c-4.781-4-11.41-4.781-17.03-2.219C3.594 164.2 0 169.8 0 176v160C0 342.2 3.594 347.8 9.219 350.5zM32 96h384c17.67 0 32-14.33 32-32S433.7 32 416 32H32C14.33 32 0 46.33 0 63.1S14.33 96 32 96zM416 416H32c-17.67 0-32 14.33-32 31.1S14.33 480 32 480h384c17.67 0 32-14.33 32-32S433.7 416 416 416zM416 288h-192C206.3 288 192 302.3 192 319.1S206.3 352 224 352h192c17.67 0 32-14.33 32-32S433.7 288 416 288zM416 160h-192C206.3 160 192 174.3 192 191.1S206.3 224 224 224h192c17.67 0 32-14.33 32-32S433.7 160 416 160z"/></svg>
